bundles/org.openhab.ui.iconset.classic/src/main/resources/icons/garagedoor-20.svg

<?xml version="1.0" encoding="UTF-8"?>
<svg enable-background="new 0 0 64 64" viewBox="0 0 64 64" xmlns="http://www.w3.org/2000/svg">
 <path d="m9.5 15.5h15v11h-15z" fill="#282828"/>
 <path d="m24 16v10h-14v-10h14m1-1h-16v12h16v-12z" fill="#3c3c3c"/>
 <path d="m24.5 15.5h15v11h-15z" fill="#282828"/>
 <path d="m39 16v10h-14v-10h14m1-1h-16v12h16v-12z" fill="#3c3c3c"/>
 <path d="m39.5 15.5h15v11h-15z" fill="#282828"/>
 <path d="m54 16v10h-14v-10h14m1-1h-16v12h16v-12z" fill="#3c3c3c"/>
 <path d="m55.5 53.5v-35h-47v35h-5v-40h57v40z" fill="#f0f0f0"/>
 <path d="m60 14v39h-4v-35h-48v35h-4v-39h56m1-1h-58v41h6v-35h46v35h6v-41z" fill="#c8c8c8"/>
</svg>

<svg viewBox="0 0 64 64" xmlns="http://www.w3.org/2000/svg"><path d="M9.5 15.5h15v11h-15z" fill="#282828"/><path d="M24 16v10H10V16h14m1-1H9v12h16V15z" fill="#3c3c3c"/><path d="M24.5 15.5h15v11h-15z" fill="#282828"/><path d="M39 16v10H25V16h14m1-1H24v12h16V15z" fill="#3c3c3c"/><path d="M39.5 15.5h15v11h-15z" fill="#282828"/><path d="M54 16v10H40V16h14m1-1H39v12h16V15z" fill="#3c3c3c"/><path d="M55.5 53.5v-35h-47v35h-5v-40h57v40z" fill="#f0f0f0"/><path d="M60 14v39h-4V18H8v35H4V14h56m1-1H3v41h6V19h46v35h6V13z" fill="#c8c8c8"/></svg>
